static/logos/wordpress-glyph-color.svg

<svg width="50" height="50" viewBox="0 0 50 50" fill="none" xmlns="http://www.w3.org/2000/svg">
<g clip-path="url(#clip0_1_370)">
<path d="M3.30769 25C3.30769 33.5962 8.3077 41 15.5385 44.5192L5.1923 16.1731C3.94995 18.95 3.30775 21.9578 3.30769 25ZM25 46.6923C27.5192 46.6923 29.9423 46.25 32.2116 45.4616L32.0577 45.1731L25.3846 26.9039L18.8846 45.8077C20.8077 46.3846 22.8654 46.6923 25 46.6923ZM27.9807 14.8269L35.8269 38.1539L38 30.9231C38.9231 27.9231 39.6346 25.7693 39.6346 23.9039C39.6346 21.2116 38.6731 19.3654 37.8654 17.9423C36.75 16.1346 35.7308 14.6154 35.7308 12.8462C35.7308 10.8462 37.2308 9 39.3846 9H39.6539C35.6568 5.3306 30.426 3.29865 25 3.30769C21.4074 3.30702 17.8709 4.19947 14.7087 5.90475C11.5465 7.61005 8.85785 10.0746 6.8846 13.0769L8.26925 13.1154C10.5385 13.1154 14.0385 12.8269 14.0385 12.8269C15.2308 12.7692 15.3654 14.4808 14.1923 14.6154C14.1923 14.6154 13.0192 14.7692 11.6923 14.8269L19.6154 38.3269L24.3654 24.0961L20.9807 14.8269C20.2226 14.7851 19.4659 14.7209 18.7115 14.6346C17.5384 14.5577 17.6731 12.7692 18.8461 12.8269C18.8461 12.8269 22.4231 13.1154 24.5577 13.1154C26.8269 13.1154 30.3269 12.8269 30.3269 12.8269C31.5 12.7692 31.6538 14.4808 30.4807 14.6154C30.4807 14.6154 29.3077 14.75 27.9807 14.8269ZM35.9039 43.75C39.1855 41.8419 41.9089 39.106 43.8021 35.8158C45.6953 32.5255 46.6918 28.7961 46.6923 25C46.6923 21.2308 45.7307 17.6923 44.0384 14.5962C44.3821 18.0025 43.8664 21.4406 42.5384 24.5961L35.9039 43.75ZM25 50C18.3696 50 12.0107 47.3661 7.32235 42.6777C2.63392 37.9893 0 31.6304 0 25C0 18.3696 2.63392 12.0107 7.32235 7.32235C12.0107 2.63392 18.3696 0 25 0C31.6304 0 37.9893 2.63392 42.6777 7.32235C47.3661 12.0107 50 18.3696 50 25C50 31.6304 47.3661 37.9893 42.6777 42.6777C37.9893 47.3661 31.6304 50 25 50Z" fill="#126FC2"/>
</g>
<defs>
<clipPath id="clip0_1_370">
<rect width="50" height="50" fill="white"/>
</clipPath>
</defs>
</svg>

<svg xmlns="http://www.w3.org/2000/svg" width="64" height="64" fill="none" viewBox="0 0 50 50"><g clip-path="url(#a)"><path fill="#126FC2" d="M3.308 25c0 8.596 5 16 12.23 19.52L5.193 16.172A21.615 21.615 0 0 0 3.308 25ZM25 46.692c2.52 0 4.942-.442 7.212-1.23l-.154-.289-6.673-18.27-6.5 18.905c1.923.577 3.98.884 6.115.884Zm2.98-31.865 7.847 23.327L38 30.924c.923-3 1.635-5.155 1.635-7.02 0-2.692-.962-4.539-1.77-5.962-1.115-1.807-2.134-3.327-2.134-5.096 0-2 1.5-3.846 3.654-3.846h.269A21.616 21.616 0 0 0 25 3.308a21.673 21.673 0 0 0-18.115 9.769l1.384.038c2.27 0 5.77-.288 5.77-.288 1.192-.058 1.326 1.654.153 1.788 0 0-1.173.154-2.5.212l7.923 23.5 4.75-14.23-3.384-9.27a38.723 38.723 0 0 1-2.27-.192c-1.173-.077-1.038-1.866.135-1.808 0 0 3.577.288 5.712.288 2.269 0 5.769-.288 5.769-.288 1.173-.058 1.327 1.654.154 1.788 0 0-1.173.135-2.5.212Zm7.924 28.923A21.693 21.693 0 0 0 46.692 25c0-3.77-.961-7.308-2.654-10.404a20.48 20.48 0 0 1-1.5 10L35.904 43.75ZM25 50a25 25 0 1 1 0-50 25 25 0 0 1 0 50Z"/></g><defs><clipPath id="a"><path fill="#fff" d="M0 0h50v50H0z"/></clipPath></defs></svg>
